X: 051
T: 1 Le Cadrille
T: le Cadrille
B: Robert Landrin "Potpourri fran\,cois des contre-danse ancienne tel quil se danse chez la Reine ..." 1760 p.5 #1 dance 02 #1
S: http://memory.loc.gov/cgi-bin/query/D?musdibib:2:./temp/~ammem_EbRS:
Z: 2014 John Chambers <jc:trillian.mit.edu>
M: 2/2
L: 1/8
K: G
% - - - - - - - - - - - - - - - - - - - - - - - - -
d4 !segno!|\
e4 dedc | !+!B4 G2cB | A2GF G2A2 | B2G2 d4 |\
e4 dedc | !+!B4 G2cB | A2G2 A2F2 | G4 :|
|: d2!f!gf |\
edef g2fe | d4 d2gf | edef g4 | d4 d2gf |\
e2e2 d2c2 | !+!B4 G2cB | A2GF G2A2 | B2G2 d4 !segno!:|
% - - - - - - - - - - - - - - - - - - - - - - - - -

%%sep 1 1 500
%%sep 1 1 500
